X:47
T:GB/7a/47 The Trees They Do Grow High-0
%%VWML:GB-7a-47-0
F:http://www.vwml.org/record/GB/7a/47
T:Version 1 of 3
C:Mr Cranstone (c.50) Billingshurst, VI.07
C:Transcribed by Simon Furey and Lewis Jones
L:1/8
Q:1/4=60
M:2/4
I:linebreak $
K:A
"^Slow" D2 | A2 AB | c2 B>G | A>G ED | E3 F | =GF GA | B2 A>F | D2 E>D | E3 E | c2 BA |$ c/d/e- ed |[M:3/4] ce A3 B | AG E3 F |[M:2/4] =GA GE | D2 DD | E A3- | A4- | A2 |]

